X: 1
T:The Miner's Song  "CYMRU"
M:3/4
L:1/8
Q:80
C:David Williams
S:Slow Air
K:HP
|] | {Gdc}d2{gdG}d2B{G}A|
{Gdc}d3/2{g}d/2f2{gef}f3|
{Gdc}d3/2f/2{gef}e2d|  !
{g}ed{e}c{G}A4{GAG}A2| |
{Gdc}d2{gdG}d2B{G}A|
{Gdc}d3/2{g}d/2f2{gef}f3|  !
{Gdc}d3/2f/2{gef}e2d|
{g}ed{e}c{Gdc}d4{gdG}d2|] |]
| {gcd}c3/2d/2{gef}e2{g}A3|  !
{Gdc}d3/2e/2{gfg}f2{ag}a3|
{gcd}c3/2d/2{gef}e2{g}A{ag}a3|
e{gfg}f4{e}f2| |  !
{gcd}c3/2d/2{gef}e2{g}A3|
{Gdc}d3/2e/2{gfg}f2{ag}a3|
{gcd}c3/2d/2{gef}e2{g}A{gfg}f3|  !
e{Gdc}d4{gdG}d2|]
